Newaita-dark/actions/16/edit-select-all.svg

<svg height="16" viewBox="0 0 16 16" width="16" xmlns="http://www.w3.org/2000/svg"><g fill="#e0e0e0"><path d="m4.300781 4.09375c-.183593 0-.332031.148438-.332031.332031v2.644531c0 .183594.148438.332032.332031.332032h2.644531c.183594 0 .332032-.148438.332032-.332032v-2.644531c0-.183593-.148438-.332031-.332032-.332031zm.527344.660156h1.589844c.109375 0 .195312.089844.195312.199219v1.589844c0 .109375-.085937.195312-.195312.195312h-1.589844c-.109375 0-.199219-.085937-.199219-.195312v-1.589844c0-.109375.089844-.199219.199219-.199219zm0 0"/><path d="m8.898438 4.09375c-.183594 0-.332032.148438-.332032.332031v2.644531c0 .183594.148438.332032.332032.332032h2.644531c.183593 0 .332031-.148438.332031-.332032v-2.644531c0-.183593-.148438-.332031-.332031-.332031zm.527343.660156h1.589844c.109375 0 .195313.089844.195313.199219v1.589844c0 .109375-.085938.195312-.195313.195312h-1.589844c-.109375 0-.199219-.085937-.199219-.195312v-1.589844c0-.109375.089844-.199219.199219-.199219zm0 0"/><path d="m4.300781 8.726562c-.183593 0-.332031.144532-.332031.328126v2.648437c0 .183594.148438.328125.332031.328125h2.644531c.183594 0 .332032-.144531.332032-.328125v-2.648437c0-.183594-.148438-.328126-.332032-.328126zm.527344.660157h1.589844c.109375 0 .195312.089843.195312.199219v1.585937c0 .109375-.085937.199219-.195312.199219h-1.589844c-.109375 0-.199219-.089844-.199219-.199219v-1.585937c0-.109376.089844-.199219.199219-.199219zm0 0"/><path d="m8.898438 8.726562c-.183594 0-.332032.144532-.332032.328126v2.648437c0 .183594.148438.328125.332032.328125h2.644531c.183593 0 .332031-.144531.332031-.328125v-2.648437c0-.183594-.148438-.328126-.332031-.328126zm.527343.660157h1.589844c.109375 0 .195313.089843.195313.199219v1.585937c0 .109375-.085938.199219-.195313.199219h-1.589844c-.109375 0-.199219-.089844-.199219-.199219v-1.585937c0-.109376.089844-.199219.199219-.199219zm0 0"/><path d="m2.644531 1.449219c-.730469 0-1.320312.589843-1.320312 1.320312v2.648438h1.320312v-1.984375c0-.367188.296875-.664063.664063-.664063h1.984375v-1.320312zm7.941407 0v1.320312h1.984374c.363282 0 .660157.296875.660157.664063v1.984375h1.324219v-2.648438c0-.730469-.589844-1.320312-1.324219-1.320312zm-9.261719 9.261719v2.644531c0 .734375.589843 1.324219 1.320312 1.324219h2.648438v-1.324219h-1.984375c-.367188 0-.664063-.296875-.664063-.660157v-1.984374zm11.90625 0v1.984374c0 .363282-.296875.660157-.660157.660157h-1.984374v1.324219h2.644531c.734375 0 1.324219-.589844 1.324219-1.324219v-2.644531zm0 0"/></g></svg>

<svg xmlns="http://www.w3.org/2000/svg" xmlns:xlink="http://www.w3.org/1999/xlink" width="16px" height="16px" viewBox="0 0 16 16" version="1.1">
<g id="surface1">
     <defs>
  <style id="current-color-scheme" type="text/css">
   .ColorScheme-Text { color:#eeeeee; } .ColorScheme-Highlight { color:#424242; }
  </style>
 </defs>
<path style="fill:currentColor" class="ColorScheme-Text" d="M 4.300781 4.09375 C 4.117188 4.09375 3.96875 4.242188 3.96875 4.425781 L 3.96875 7.070312 C 3.96875 7.253906 4.117188 7.402344 4.300781 7.402344 L 6.945312 7.402344 C 7.128906 7.402344 7.277344 7.253906 7.277344 7.070312 L 7.277344 4.425781 C 7.277344 4.242188 7.128906 4.09375 6.945312 4.09375 Z M 4.828125 4.753906 L 6.417969 4.753906 C 6.527344 4.753906 6.613281 4.84375 6.613281 4.953125 L 6.613281 6.542969 C 6.613281 6.652344 6.527344 6.738281 6.417969 6.738281 L 4.828125 6.738281 C 4.71875 6.738281 4.628906 6.652344 4.628906 6.542969 L 4.628906 4.953125 C 4.628906 4.84375 4.71875 4.753906 4.828125 4.753906 Z M 4.828125 4.753906 "/>
     <defs>
  <style id="current-color-scheme" type="text/css">
   .ColorScheme-Text { color:#eeeeee; } .ColorScheme-Highlight { color:#424242; }
  </style>
 </defs>
<path style="fill:currentColor" class="ColorScheme-Text" d="M 8.898438 4.09375 C 8.714844 4.09375 8.566406 4.242188 8.566406 4.425781 L 8.566406 7.070312 C 8.566406 7.253906 8.714844 7.402344 8.898438 7.402344 L 11.542969 7.402344 C 11.726562 7.402344 11.875 7.253906 11.875 7.070312 L 11.875 4.425781 C 11.875 4.242188 11.726562 4.09375 11.542969 4.09375 Z M 9.425781 4.753906 L 11.015625 4.753906 C 11.125 4.753906 11.210938 4.84375 11.210938 4.953125 L 11.210938 6.542969 C 11.210938 6.652344 11.125 6.738281 11.015625 6.738281 L 9.425781 6.738281 C 9.316406 6.738281 9.226562 6.652344 9.226562 6.542969 L 9.226562 4.953125 C 9.226562 4.84375 9.316406 4.753906 9.425781 4.753906 Z M 9.425781 4.753906 "/>
     <defs>
  <style id="current-color-scheme" type="text/css">
   .ColorScheme-Text { color:#eeeeee; } .ColorScheme-Highlight { color:#424242; }
  </style>
 </defs>
<path style="fill:currentColor" class="ColorScheme-Text" d="M 4.300781 8.726562 C 4.117188 8.726562 3.96875 8.871094 3.96875 9.054688 L 3.96875 11.703125 C 3.96875 11.886719 4.117188 12.03125 4.300781 12.03125 L 6.945312 12.03125 C 7.128906 12.03125 7.277344 11.886719 7.277344 11.703125 L 7.277344 9.054688 C 7.277344 8.871094 7.128906 8.726562 6.945312 8.726562 Z M 4.828125 9.386719 L 6.417969 9.386719 C 6.527344 9.386719 6.613281 9.476562 6.613281 9.585938 L 6.613281 11.171875 C 6.613281 11.28125 6.527344 11.371094 6.417969 11.371094 L 4.828125 11.371094 C 4.71875 11.371094 4.628906 11.28125 4.628906 11.171875 L 4.628906 9.585938 C 4.628906 9.476562 4.71875 9.386719 4.828125 9.386719 Z M 4.828125 9.386719 "/>
     <defs>
  <style id="current-color-scheme" type="text/css">
   .ColorScheme-Text { color:#eeeeee; } .ColorScheme-Highlight { color:#424242; }
  </style>
 </defs>
<path style="fill:currentColor" class="ColorScheme-Text" d="M 8.898438 8.726562 C 8.714844 8.726562 8.566406 8.871094 8.566406 9.054688 L 8.566406 11.703125 C 8.566406 11.886719 8.714844 12.03125 8.898438 12.03125 L 11.542969 12.03125 C 11.726562 12.03125 11.875 11.886719 11.875 11.703125 L 11.875 9.054688 C 11.875 8.871094 11.726562 8.726562 11.542969 8.726562 Z M 9.425781 9.386719 L 11.015625 9.386719 C 11.125 9.386719 11.210938 9.476562 11.210938 9.585938 L 11.210938 11.171875 C 11.210938 11.28125 11.125 11.371094 11.015625 11.371094 L 9.425781 11.371094 C 9.316406 11.371094 9.226562 11.28125 9.226562 11.171875 L 9.226562 9.585938 C 9.226562 9.476562 9.316406 9.386719 9.425781 9.386719 Z M 9.425781 9.386719 "/>
     <defs>
  <style id="current-color-scheme" type="text/css">
   .ColorScheme-Text { color:#eeeeee; } .ColorScheme-Highlight { color:#424242; }
  </style>
 </defs>
<path style="fill:currentColor" class="ColorScheme-Text" d="M 2.644531 1.449219 C 1.914062 1.449219 1.324219 2.039062 1.324219 2.769531 L 1.324219 5.417969 L 2.644531 5.417969 L 2.644531 3.433594 C 2.644531 3.066406 2.941406 2.769531 3.308594 2.769531 L 5.292969 2.769531 L 5.292969 1.449219 Z M 10.585938 1.449219 L 10.585938 2.769531 L 12.570312 2.769531 C 12.933594 2.769531 13.230469 3.066406 13.230469 3.433594 L 13.230469 5.417969 L 14.554688 5.417969 L 14.554688 2.769531 C 14.554688 2.039062 13.964844 1.449219 13.230469 1.449219 Z M 1.324219 10.710938 L 1.324219 13.355469 C 1.324219 14.089844 1.914062 14.679688 2.644531 14.679688 L 5.292969 14.679688 L 5.292969 13.355469 L 3.308594 13.355469 C 2.941406 13.355469 2.644531 13.058594 2.644531 12.695312 L 2.644531 10.710938 Z M 13.230469 10.710938 L 13.230469 12.695312 C 13.230469 13.058594 12.933594 13.355469 12.570312 13.355469 L 10.585938 13.355469 L 10.585938 14.679688 L 13.230469 14.679688 C 13.964844 14.679688 14.554688 14.089844 14.554688 13.355469 L 14.554688 10.710938 Z M 13.230469 10.710938 "/>
</g>
</svg>
